public/icons/Pug-Dark.svg

<svg xmlns="http://www.w3.org/2000/svg" width="256" height="256" fill="none" viewBox="0 0 256 256"><rect width="256" height="256" fill="#242938" rx="60"/><path fill="#EFCCA3" d="M208.86 99.9506C208.487 91.553 209.606 84.1096 205.877 77.8113C196.93 62.1611 174.56 53 129.82 53V54.336H128.888H129.82V53C85.08 53 61.5917 62.1611 52.6437 78.0022C49.1018 84.4913 49.4746 91.7438 48.9154 100.142C48.5425 106.821 45.5599 113.883 46.8648 121.517C48.3561 131.442 48.9154 141.366 50.4067 150.528C51.5252 157.971 61.5916 164.269 62.5237 171.331C65.1335 190.798 84.8936 199.768 129.633 199.768V201.295H128.515H128.701H129.82V199.768C174.56 199.768 193.574 190.798 195.997 171.331C196.93 164.078 206.25 157.971 207.369 150.528C208.86 141.366 209.419 131.442 210.911 121.517C212.216 113.883 209.233 106.631 208.86 99.9506V99.9506Z"/><path fill="#CCAC8D" d="M129.074 106.822C137.09 107.012 142.682 112.166 147.902 116.937C154.054 122.472 164.493 126.289 168.781 131.06C173.068 135.832 178.661 140.603 180.711 148.046C182.762 155.49 183.321 165.033 183.321 167.514C183.321 169.995 184.626 169.422 188.354 167.514C197.116 163.124 206.809 151.291 206.809 151.291C205.691 158.734 196.184 165.414 195.252 172.476C193.015 191.943 174.559 201.295 128.888 201.295H128.701H129.82"/><path fill="#CCAC8D" d="M158.528 91.9348C160.206 97.8513 166.171 117.891 154.613 111.211C154.613 111.211 159.46 114.074 162.442 124.953C165.612 135.832 173.255 137.168 173.255 137.168C173.255 137.168 185.744 139.649 195.065 131.442C202.895 124.571 204.2 112.356 200.844 103.004C197.489 93.8433 191.523 90.9805 182.762 89.0719C174 86.9725 156.477 85.2548 158.528 91.9348V91.9348Z"/><path fill="#fff" d="M176.424 110.639C178.792 110.639 180.711 108.673 180.711 106.249C180.711 103.824 178.792 101.859 176.424 101.859C174.056 101.859 172.136 103.824 172.136 106.249C172.136 108.673 174.056 110.639 176.424 110.639Z"/><path fill="#EFCCA3" d="M155.732 112.929C155.732 112.929 170.458 123.235 178.474 133.351C186.49 143.466 186.304 145.375 186.304 145.375L180.525 148.047C180.525 148.047 172.323 132.205 162.256 126.289C152.003 120.372 150.885 115.41 150.885 115.41L155.732 112.929Z"/><path fill="#CCAC8D" d="M129.633 106.822C121.617 107.012 115.652 112.166 110.246 116.937C104.094 122.472 93.2822 126.289 88.9947 131.06C84.7071 135.832 78.9282 140.603 76.8776 148.046C74.8271 155.49 74.0814 165.033 74.0814 167.514C74.0814 169.995 74.4542 170.186 69.0482 167.514C60.2866 163.315 50.593 151.291 50.593 151.291C51.7115 158.734 61.2187 165.414 62.1508 172.476C64.7606 191.943 83.2158 201.295 128.888 201.295H129.074H129.82"/><path fill="#56332B" d="M172.882 139.076C163.934 127.816 149.58 117.319 129.633 117.319H129.447C109.5 117.319 95.1464 127.816 86.1984 139.076C76.8777 150.718 77.6233 155.299 77.6233 166.369C77.6233 206.448 91.4181 194.997 100.552 199.959C109.873 204.731 119.567 203.204 129.447 203.204H129.633C139.7 203.204 149.207 204.54 158.528 199.769C167.662 194.997 181.457 206.83 181.457 166.75C181.643 155.681 182.203 150.718 172.882 139.076V139.076Z"/><path fill="#442823" d="M128.701 127.243C128.701 127.243 127.396 145.756 124.787 149.383L129.633 148.237L128.701 127.243Z"/><path fill="#442823" d="M130.006 127.243C130.006 127.243 131.311 145.756 133.921 149.383L129.074 148.237L130.006 127.243Z"/><path fill="#56332B" d="M114.347 122.853C112.483 118.464 119.194 111.402 129.82 111.211C140.446 111.211 147.156 118.273 145.292 122.853C143.428 127.434 136.717 128.77 129.82 128.961C123.109 128.77 116.211 127.434 114.347 122.853V122.853Z"/><path fill="#7F4A41" d="M130.192 152.818C133.362 152.818 138.954 155.108 143.987 158.734C139.14 153.199 133.362 149.382 130.192 149.382C126.837 149.382 119.753 153.581 114.72 159.689C119.94 155.49 126.651 152.818 130.192 152.818Z"/><path fill="#442823" d="M128.888 186.599C121.804 186.599 114.906 184.309 108.568 182.591C107.263 182.21 105.958 183.164 104.654 182.782C92.9094 178.965 83.4022 172.476 77.6233 164.269C77.6233 164.842 77.6233 165.605 77.6233 166.178C77.6233 206.258 91.4181 194.997 100.552 199.769C109.873 204.54 119.567 203.013 129.447 203.013H129.633C139.7 203.013 149.207 204.349 158.528 199.578C167.662 194.806 181.457 206.449 181.457 166.369C181.457 164.842 181.457 163.315 181.643 161.979C176.237 170.949 166.357 178.011 154.054 182.21C152.935 182.591 150.325 181.637 149.207 181.828C142.496 184.118 136.531 186.599 128.888 186.599V186.599Z"/><path fill="#442823" d="M111.178 165.033C111.178 165.033 106.518 179.347 109.687 185.645L105.399 183.737C105.399 183.737 108.568 169.232 111.178 165.033V165.033Z"/><path fill="#442823" d="M148.088 165.033C148.088 165.033 152.749 179.347 149.58 185.645L153.867 183.737C153.867 183.737 150.512 169.232 148.088 165.033Z"/><path fill="#CCAC8D" d="M99.2476 91.9348C97.5699 97.8513 91.6046 117.891 103.162 111.211C103.162 111.211 98.3155 114.074 95.3329 124.953C92.3502 135.832 84.5208 137.168 84.5208 137.168C84.5208 137.168 72.0309 139.649 62.7101 131.442C54.8806 124.571 53.5757 112.356 56.9312 103.004C60.2867 93.6525 66.252 90.9805 75.0135 89.0719C83.7751 86.9725 101.112 85.2548 99.2476 91.9348V91.9348Z"/><path fill="#331712" d="M133.702 122.957C134.5 122.747 134.834 121.335 134.448 119.804C134.063 118.273 133.103 117.203 132.306 117.413C131.508 117.624 131.174 119.036 131.56 120.567C131.946 122.098 132.905 123.168 133.702 122.957Z"/><path fill="#331712" d="M124.121 122.929C124.907 123.179 125.916 122.157 126.373 120.647C126.831 119.137 126.564 117.71 125.778 117.46C124.991 117.21 123.982 118.232 123.525 119.742C123.067 121.252 123.334 122.679 124.121 122.929Z"/><path fill="#fff" d="M82.2837 110.639C84.6516 110.639 86.5712 108.673 86.5712 106.249C86.5712 103.824 84.6516 101.859 82.2837 101.859C79.9157 101.859 77.9961 103.824 77.9961 106.249C77.9961 108.673 79.9157 110.639 82.2837 110.639Z"/><path fill="#7F4A41" d="M134.48 113.883C134.48 113.692 130.193 115.792 129.074 115.983C127.956 115.792 123.668 113.692 123.668 113.883C123.668 113.883 127.21 113.883 129.074 113.883C130.938 113.883 134.48 113.883 134.48 113.883Z"/><path fill="#EFCCA3" d="M101.857 112.929C101.857 112.929 87.1306 123.235 79.1147 133.351C71.0989 143.466 71.2853 145.375 71.2853 145.375L77.0642 148.047C77.0642 148.047 85.2665 132.205 95.3329 126.289C105.399 120.372 106.704 115.41 106.704 115.41L101.857 112.929Z"/><path fill="#CCAC8D" d="M69.6073 82.3918C69.6073 82.3918 64.5741 96.5152 53.3892 102.432C53.3892 102.432 70.9122 100.332 69.6073 82.3918Z"/><path fill="#CCAC8D" d="M187.236 82.3918C187.236 82.3918 192.269 96.5152 203.454 102.432C203.454 102.432 185.931 100.332 187.236 82.3918Z"/><path fill="#CCAC8D" d="M155.359 108.73C155.359 108.73 144.36 96.8968 129.633 96.5151C129.447 96.5151 130.006 96.5151 129.82 96.5151C129.633 96.5151 130.006 96.5151 130.006 96.5151C115.093 96.8968 104.281 108.73 104.281 108.73C117.143 99.5688 128.142 99.7597 130.006 99.7597C129.82 99.7597 142.496 99.5688 155.359 108.73V108.73Z"/><path fill="#CCAC8D" d="M142.496 83.9187C142.496 83.9187 136.904 75.9028 129.447 75.7119H129.633H129.82C124.227 75.9028 116.957 83.9187 116.957 83.9187C123.295 77.6205 129.82 77.8113 129.82 77.8113C129.82 77.8113 135.971 77.6205 142.496 83.9187V83.9187Z"/><path fill="#CCAC8D" d="M77.9961 142.511C77.9961 142.511 69.2346 146.901 62.8964 144.229H62.71C57.1175 140.985 54.3213 131.251 54.3213 131.251C54.3213 131.251 59.9138 148.428 77.9961 142.511V142.511Z"/><path fill="#CCAC8D" d="M180.152 142.511C180.152 142.511 188.914 146.901 195.252 144.229C202.708 140.985 203.827 131.251 203.827 131.251C203.827 131.251 198.234 148.428 180.152 142.511V142.511Z"/><path fill="#CCAC8D" d="M88.0625 81.4376C92.9093 80.4833 100.925 80.2924 107.263 82.3919C115.279 85.2547 108.755 95.7518 110.432 96.3244C112.11 96.8969 114.347 89.0718 129.26 89.8352C144.36 90.5987 146.038 97.4695 148.088 96.3244C150.139 95.1792 146.038 77.2387 168.594 81.4376C168.594 81.4376 144.919 74.9485 146.038 92.5072C146.038 92.5072 132.429 81.8193 113.415 91.3621C113.601 91.3621 118.448 74.9485 88.0625 81.4376V81.4376Z"/><path fill="#CCAC8D" d="M170.645 81.4375C171.018 81.4375 171.204 81.6284 171.39 81.6284C171.577 81.6284 171.204 81.4375 170.645 81.4375Z"/><path fill="#CCAC8D" d="M81.538 57.9622C81.538 57.9622 61.4051 83.9186 58.4225 93.8431C55.4398 103.959 53.2028 145.374 50.593 151.291L41.2722 110.448L58.4225 67.8867L81.538 57.9622Z"/><path fill="#CCAC8D" d="M176.237 57.9622C176.237 57.9622 196.37 83.9186 199.353 93.8431C202.336 103.959 204.573 145.374 207.182 151.291L216.503 110.448L199.353 67.8867L176.237 57.9622Z"/><path fill="#56332B" d="M175.305 57.9622C175.305 57.9622 196.929 76.4752 203.267 97.8511C209.606 119.227 206.996 145.183 211.843 148.428C218.74 153.009 226.569 125.716 229.179 122.853C233.28 118.273 246.889 106.631 247.821 104.531C248.753 102.432 220.231 70.5587 207.741 64.2604C192.642 57.0079 174 56.4353 175.305 57.9622V57.9622Z"/><path fill="#442823" d="M193.76 69.4136C193.76 69.4136 219.299 102.813 218.926 144.42L229.179 123.044C228.993 123.044 220.045 95.7517 193.76 69.4136Z"/><path fill="#56332B" d="M81.538 57.9622C81.538 57.9622 59.9138 76.4752 53.5757 97.8511C47.2375 119.227 49.8474 145.183 45.0006 148.428C38.1032 153.009 30.2737 125.716 27.6639 122.853C23.5627 118.273 9.95438 106.631 9.02231 104.531C8.09023 102.432 36.6118 70.5587 49.1017 64.2604C64.2014 57.0079 82.843 56.4353 81.538 57.9622Z"/><path fill="#442823" d="M63.0829 69.4136C63.0829 69.4136 37.544 102.813 37.9168 144.42L27.8503 123.044C27.8503 123.044 36.7983 95.7517 63.0829 69.4136Z"/><path fill="#CCAC8D" d="M49.2881 145.184C49.2881 145.184 51.1522 155.49 54.1349 158.734C57.1175 161.979 55.067 156.253 55.067 156.253C55.067 156.253 51.8979 154.536 52.4572 141.366C53.0164 128.197 49.2881 145.184 49.2881 145.184V145.184Z"/><path fill="#CCAC8D" d="M208.301 145.184C208.301 145.184 206.437 155.49 203.454 158.734C200.471 161.979 202.522 156.253 202.522 156.253C202.522 156.253 205.691 154.536 205.132 141.366C204.572 128.197 208.301 145.184 208.301 145.184V145.184Z"/><path fill="#442823" d="M110.246 138.885C111.07 138.885 111.737 138.202 111.737 137.358C111.737 136.515 111.07 135.832 110.246 135.832C109.422 135.832 108.755 136.515 108.755 137.358C108.755 138.202 109.422 138.885 110.246 138.885Z"/><path fill="#442823" d="M101.671 148.046C102.494 148.046 103.162 147.363 103.162 146.52C103.162 145.676 102.494 144.993 101.671 144.993C100.847 144.993 100.179 145.676 100.179 146.52C100.179 147.363 100.847 148.046 101.671 148.046Z"/><path fill="#442823" d="M98.8746 138.885C99.6983 138.885 100.366 138.202 100.366 137.358C100.366 136.515 99.6983 135.832 98.8746 135.832C98.051 135.832 97.3833 136.515 97.3833 137.358C97.3833 138.202 98.051 138.885 98.8746 138.885Z"/><path fill="#442823" d="M146.597 138.885C147.421 138.885 148.089 138.202 148.089 137.358C148.089 136.515 147.421 135.832 146.597 135.832C145.774 135.832 145.106 136.515 145.106 137.358C145.106 138.202 145.774 138.885 146.597 138.885Z"/><path fill="#442823" d="M155.172 148.046C155.996 148.046 156.664 147.363 156.664 146.52C156.664 145.676 155.996 144.993 155.172 144.993C154.349 144.993 153.681 145.676 153.681 146.52C153.681 147.363 154.349 148.046 155.172 148.046Z"/><path fill="#442823" d="M157.969 138.885C158.792 138.885 159.46 138.202 159.46 137.358C159.46 136.515 158.792 135.832 157.969 135.832C157.145 135.832 156.477 136.515 156.477 137.358C156.477 138.202 157.145 138.885 157.969 138.885Z"/><path fill="#000" stroke="#242938" stroke-opacity=".8" stroke-width=".32" d="M78.973 125.637C88.1385 125.637 95.5686 118.173 95.5686 108.965C95.5686 99.7574 88.1385 92.2932 78.973 92.2932C69.8075 92.2932 62.3774 99.7574 62.3774 108.965C62.3774 118.173 69.8075 125.637 78.973 125.637Z"/><path fill="#fff" d="M86.0829 108.355C88.505 108.355 90.4685 106.451 90.4685 104.102C90.4685 101.753 88.505 99.8491 86.0829 99.8491C83.6608 99.8491 81.6973 101.753 81.6973 104.102C81.6973 106.451 83.6608 108.355 86.0829 108.355Z"/><path fill="#000" stroke="#242938" stroke-opacity=".8" stroke-width=".32" d="M179.354 125.931C188.519 125.931 195.949 118.467 195.949 109.259C195.949 100.051 188.519 92.5872 179.354 92.5872C170.188 92.5872 162.758 100.051 162.758 109.259C162.758 118.467 170.188 125.931 179.354 125.931Z"/><path fill="#fff" d="M170.061 105.66C171.646 105.66 172.932 104.406 172.932 102.859C172.932 101.312 171.646 100.058 170.061 100.058C168.475 100.058 167.19 101.312 167.19 102.859C167.19 104.406 168.475 105.66 170.061 105.66Z"/><path fill="#fff" d="M170.632 108.014C173.054 108.014 175.018 106.109 175.018 103.76C175.018 101.412 173.054 99.5073 170.632 99.5073C168.21 99.5073 166.246 101.412 166.246 103.76C166.246 106.109 168.21 108.014 170.632 108.014Z"/></svg>

<svg xmlns="http://www.w3.org/2000/svg" width="256" height="256" fill="none"><rect width="256" height="256" fill="#242938" rx="60"/><path fill="#EFCCA3" d="M208.86 99.95c-.373-8.397.746-15.84-2.983-22.139C196.93 62.161 174.56 53 129.82 53v1.336h-.932.932V53c-44.74 0-68.228 9.161-77.176 25.002-3.542 6.49-3.17 13.742-3.729 22.14-.373 6.679-3.355 13.741-2.05 21.375 1.491 9.925 2.05 19.849 3.542 29.011 1.118 7.443 11.185 13.741 12.117 20.803 2.61 19.467 22.37 28.437 67.109 28.437v1.527h-1.118 1.305v-1.527c44.74 0 63.754-8.97 66.177-28.437.933-7.253 10.253-13.36 11.372-20.803 1.491-9.162 2.05-19.086 3.542-29.011 1.305-7.634-1.678-14.886-2.051-21.566"/><path fill="#CCAC8D" d="M129.074 106.822c8.016.19 13.608 5.344 18.828 10.115 6.152 5.535 16.591 9.352 20.879 14.123 4.287 4.772 9.88 9.543 11.93 16.986 2.051 7.444 2.61 16.987 2.61 19.468s1.305 1.908 5.033 0c8.762-4.39 18.455-16.223 18.455-16.223-1.118 7.443-10.625 14.123-11.557 21.185-2.237 19.467-20.693 28.819-66.364 28.819h-.187 1.119"/><path fill="#CCAC8D" d="M158.528 91.935c1.678 5.916 7.643 25.956-3.915 19.276 0 0 4.847 2.863 7.829 13.742 3.17 10.879 10.813 12.215 10.813 12.215s12.489 2.481 21.81-5.726c7.83-6.871 9.135-19.086 5.779-28.438-3.355-9.16-9.321-12.023-18.082-13.932-8.762-2.1-26.285-3.817-24.234 2.863"/><path fill="#fff" d="M176.424 110.639c2.368 0 4.287-1.966 4.287-4.39 0-2.425-1.919-4.39-4.287-4.39s-4.288 1.965-4.288 4.39 1.92 4.39 4.288 4.39"/><path fill="#EFCCA3" d="M155.732 112.929s14.726 10.306 22.742 20.422c8.016 10.115 7.83 12.024 7.83 12.024l-5.779 2.672s-8.202-15.842-18.269-21.758c-10.253-5.917-11.371-10.879-11.371-10.879z"/><path fill="#CCAC8D" d="M129.633 106.822c-8.016.19-13.981 5.344-19.387 10.115-6.152 5.535-16.964 9.352-21.251 14.123-4.288 4.772-10.067 9.543-12.117 16.986s-2.797 16.987-2.797 19.468.373 2.672-5.033 0c-8.761-4.199-18.455-16.223-18.455-16.223 1.118 7.443 10.626 14.123 11.558 21.185 2.61 19.467 21.065 28.819 66.737 28.819h.932"/><path fill="#56332B" d="M172.882 139.076c-8.948-11.26-23.302-21.757-43.249-21.757h-.186c-19.947 0-34.3 10.497-43.249 21.757-9.32 11.642-8.575 16.223-8.575 27.293 0 40.079 13.795 28.628 22.929 33.59 9.321 4.772 19.015 3.245 28.895 3.245h.186c10.067 0 19.574 1.336 28.895-3.435 9.134-4.772 22.929 7.061 22.929-33.019.186-11.069.746-16.032-8.575-27.674"/><path fill="#442823" d="M128.701 127.243s-1.305 18.513-3.914 22.14l4.846-1.146z"/><path fill="#442823" d="M130.006 127.243s1.305 18.513 3.915 22.14l-4.847-1.146z"/><path fill="#56332B" d="M114.347 122.853c-1.864-4.389 4.847-11.451 15.473-11.642 10.626 0 17.336 7.062 15.472 11.642-1.864 4.581-8.575 5.917-15.472 6.108-6.711-.191-13.609-1.527-15.473-6.108"/><path fill="#7F4A41" d="M130.192 152.818c3.17 0 8.762 2.29 13.795 5.916-4.847-5.535-10.625-9.352-13.795-9.352-3.355 0-10.439 4.199-15.472 10.307 5.22-4.199 11.931-6.871 15.472-6.871"/><path fill="#442823" d="M128.888 186.599c-7.084 0-13.982-2.29-20.32-4.008-1.305-.381-2.61.573-3.914.191-11.745-3.817-21.252-10.306-27.03-18.513v1.909c0 40.08 13.794 28.819 22.928 33.591 9.321 4.771 19.015 3.244 28.895 3.244h.186c10.067 0 19.574 1.336 28.895-3.435 9.134-4.772 22.929 6.871 22.929-33.209 0-1.527 0-3.054.186-4.39-5.406 8.97-15.286 16.032-27.589 20.231-1.119.381-3.729-.573-4.847-.382-6.711 2.29-12.676 4.771-20.319 4.771"/><path fill="#442823" d="M111.178 165.033s-4.66 14.314-1.491 20.612l-4.288-1.908s3.169-14.505 5.779-18.704M148.088 165.033s4.661 14.314 1.492 20.612l4.287-1.908s-3.355-14.505-5.779-18.704"/><path fill="#CCAC8D" d="M99.248 91.935c-1.678 5.916-7.643 25.956 3.914 19.276 0 0-4.847 2.863-7.83 13.742s-10.811 12.215-10.811 12.215-12.49 2.481-21.81-5.726c-7.83-6.871-9.135-19.086-5.78-28.438 3.356-9.352 9.321-12.023 18.082-13.932 8.762-2.1 26.099-3.817 24.235 2.863"/><path fill="#331712" d="M133.702 122.957c.798-.21 1.132-1.622.746-3.153s-1.345-2.601-2.142-2.391c-.798.211-1.132 1.623-.746 3.154s1.345 2.601 2.142 2.39M124.121 122.929c.786.25 1.795-.772 2.252-2.282.458-1.51.191-2.937-.595-3.187-.787-.25-1.796.772-2.253 2.282s-.191 2.937.596 3.187"/><path fill="#fff" d="M82.284 110.639c2.368 0 4.287-1.966 4.287-4.39 0-2.425-1.92-4.39-4.287-4.39s-4.288 1.965-4.288 4.39 1.92 4.39 4.288 4.39"/><path fill="#7F4A41" d="M134.48 113.883c0-.191-4.287 1.909-5.406 2.1-1.118-.191-5.406-2.291-5.406-2.1h10.812"/><path fill="#EFCCA3" d="M101.857 112.929s-14.726 10.306-22.742 20.422c-8.016 10.115-7.83 12.024-7.83 12.024l5.78 2.672s8.201-15.842 18.268-21.758c10.066-5.917 11.371-10.879 11.371-10.879z"/><path fill="#CCAC8D" d="M69.607 82.392s-5.033 14.123-16.218 20.04c0 0 17.523-2.1 16.218-20.04M187.236 82.392s5.033 14.123 16.218 20.04c0 0-17.523-2.1-16.218-20.04M155.359 108.73s-10.999-11.833-25.726-12.215h.373c-14.913.382-25.725 12.215-25.725 12.215 12.862-9.161 23.861-8.97 25.725-8.97-.186 0 12.49-.191 25.353 8.97M142.496 83.919s-5.592-8.016-13.049-8.207h.373c-5.593.19-12.863 8.207-12.863 8.207 6.338-6.298 12.863-6.108 12.863-6.108s6.151-.19 12.676 6.108M77.996 142.511s-8.761 4.39-15.1 1.718h-.186c-5.593-3.244-8.389-12.978-8.389-12.978s5.593 17.177 23.675 11.26M180.152 142.511s8.762 4.39 15.1 1.718c7.456-3.244 8.575-12.978 8.575-12.978s-5.593 17.177-23.675 11.26"/><path fill="#CCAC8D" d="M88.063 81.438c4.846-.955 12.862-1.146 19.2.954 8.016 2.863 1.492 13.36 3.169 13.932s3.915-7.252 18.828-6.489c15.1.764 16.778 7.635 18.828 6.49 2.051-1.146-2.05-19.086 20.506-14.887 0 0-23.675-6.49-22.556 11.07 0 0-13.609-10.689-32.623-1.146.186 0 5.033-16.413-25.353-9.924M170.645 81.438c.373 0 .559.19.745.19.187 0-.186-.19-.745-.19M81.538 57.962S61.405 83.92 58.423 93.843c-2.983 10.116-5.22 51.531-7.83 57.448l-9.32-40.843 17.15-42.561zM176.237 57.962s20.133 25.957 23.116 35.881c2.983 10.116 5.22 51.531 7.829 57.448l9.321-40.843-17.15-42.561z"/><path fill="#56332B" d="M175.305 57.962s21.624 18.513 27.962 39.89c6.339 21.375 3.729 47.331 8.576 50.576 6.897 4.581 14.726-22.712 17.336-25.575 4.101-4.58 17.71-16.222 18.642-18.322s-27.59-33.972-40.08-40.27c-15.099-7.253-33.741-7.826-32.436-6.299"/><path fill="#442823" d="M193.76 69.414s25.539 33.399 25.166 75.006l10.253-21.376c-.186 0-9.134-27.292-35.419-53.63"/><path fill="#56332B" d="M81.538 57.962s-21.624 18.513-27.962 39.89c-6.339 21.375-3.729 47.331-8.575 50.576-6.898 4.581-14.727-22.712-17.337-25.575-4.101-4.58-17.71-16.222-18.642-18.322s27.59-33.972 40.08-40.27c15.1-7.253 33.741-7.826 32.436-6.299"/><path fill="#442823" d="M63.083 69.414s-25.539 33.399-25.166 75.006L27.85 123.044s8.948-27.292 35.233-53.63"/><path fill="#CCAC8D" d="M49.288 145.184s1.864 10.306 4.847 13.55.932-2.481.932-2.481-3.17-1.717-2.61-14.887-3.169 3.818-3.169 3.818M208.301 145.184s-1.864 10.306-4.847 13.55-.932-2.481-.932-2.481 3.169-1.717 2.61-14.887 3.169 3.818 3.169 3.818"/><path fill="#442823" d="M110.246 138.885c.824 0 1.491-.683 1.491-1.527s-.667-1.526-1.491-1.526-1.491.683-1.491 1.526c0 .844.667 1.527 1.491 1.527M101.671 148.046c.823 0 1.491-.683 1.491-1.526 0-.844-.668-1.527-1.491-1.527s-1.492.683-1.492 1.527.668 1.526 1.492 1.526M98.875 138.885c.823 0 1.491-.683 1.491-1.527s-.668-1.526-1.491-1.526-1.492.683-1.492 1.526c0 .844.668 1.527 1.492 1.527M146.597 138.885c.824 0 1.492-.683 1.492-1.527s-.668-1.526-1.492-1.526c-.823 0-1.491.683-1.491 1.526 0 .844.668 1.527 1.491 1.527M155.172 148.046c.824 0 1.492-.683 1.492-1.526 0-.844-.668-1.527-1.492-1.527-.823 0-1.491.683-1.491 1.527s.668 1.526 1.491 1.526M157.969 138.885c.823 0 1.491-.683 1.491-1.527s-.668-1.526-1.491-1.526-1.492.683-1.492 1.526c0 .844.668 1.527 1.492 1.527"/><path fill="#000" stroke="#242938" stroke-opacity=".8" stroke-width=".32" d="M78.973 125.637c9.165 0 16.596-7.464 16.596-16.672s-7.43-16.672-16.596-16.672c-9.165 0-16.596 7.464-16.596 16.672s7.43 16.672 16.596 16.672Z"/><path fill="#fff" d="M86.083 108.355c2.422 0 4.386-1.904 4.386-4.253s-1.964-4.253-4.386-4.253-4.386 1.904-4.386 4.253 1.964 4.253 4.386 4.253"/><path fill="#000" stroke="#242938" stroke-opacity=".8" stroke-width=".32" d="M179.354 125.931c9.165 0 16.595-7.464 16.595-16.672s-7.43-16.672-16.595-16.672c-9.166 0-16.596 7.464-16.596 16.672s7.43 16.672 16.596 16.672Z"/><path fill="#fff" d="M170.061 105.66c1.585 0 2.871-1.254 2.871-2.801s-1.286-2.801-2.871-2.801c-1.586 0-2.871 1.254-2.871 2.801s1.285 2.801 2.871 2.801"/><path fill="#fff" d="M170.632 108.014c2.422 0 4.386-1.905 4.386-4.254s-1.964-4.253-4.386-4.253-4.386 1.905-4.386 4.253c0 2.349 1.964 4.254 4.386 4.254"/></svg>
